X:1
T:Paisley, LMD
T:Paisley, LMD
T:Philip Paul Bliss, 1874
T:Public Domain Courtesy of the Cyber Hymnal™
C:Philip Paul Bliss, 1874
Z:Public Domain
Z:Courtesy of the Cyber Hymnal™
%%score ( 1 2 ) ( 3 4 )
L:1/8
Q:1/4=106
M:6/8
K:F
V:1 treble 
V:2 treble 
V:3 bass 
V:4 bass 
V:1
 F | [FA]2 [FA] (AG)F | [EB]2 [EB] [EB]2 [FA] | [EG]2 [EG] ([EG][DF])[EG] | [FA]2 [FB] [FA]2 F | %5
 [FA]2 [FA] (AG)F | [EB]2 [EB] [EB]2 [FA] | [EG]2 [EG] ([EG][DF])[EG] | [FA]2 [FB] [FA]2 [Fc] | %9
 [Fc]2 [Fc] [Fd]2 [Fd] | [Fc]2 [FA] [Fc]3 | FFF [FA][FG]F | [EG]2 [FA] [EG]2 [Ec] | %13
 [Fc]2 [Fc] [Fd]2 [Fd] | [Fc]2 [FA] [Fc]3 | FFF [FA][FG]F | [EG]2 [FA] !fermata!F2 |] %17
V:2
 F | x3 F2 F | x6 | x6 | x5 F | x3 F2 F | x6 | x6 | x6 | x6 | x6 | FFF x F x | x6 | x6 | x6 | %15
 FFF x F x | x3 F2 |] %17
V:3
 [F,A,] | [F,C]2 [F,C] (CB,)[F,A,] | G,2 [G,C] [G,C]2 [F,C] | [C,C]2 [C,C] [C,C]2 [C,C] | %4
 [F,C]2 [F,D] [F,C]2 [F,A,] | [F,C]2 [F,C] (CB,)[F,A,] | G,2 [G,C] [G,C]2 [F,C] | %7
 [C,C]2 [C,C] [C,C]2 [C,C] | [F,C]2 [F,D] [F,C]2 [F,A,] | [F,A,]2 [F,A,] [F,B,]2 [F,B,] | %10
 [F,A,]2 [F,C] [F,A,]3 | [D,A,][D,A,][D,A,] [D,A,][D,A,][D,A,] | [C,C]2 [C,C] [C,C]2 [C,B,] | %13
 [F,A,]2 [F,A,] [F,B,]2 [F,B,] | [F,A,]2 [F,C] [F,A,]3 | [D,A,][D,A,][D,A,] [D,A,][D,A,][D,A,] | %16
 [C,B,]2 [C,C] !fermata![F,A,]2 |] %17
V:4
 x | x3 F,2 x | G,2 x4 | x6 | x6 | x3 F,2 x | G,2 x4 | x6 | x6 | x6 | x6 | x6 | x6 | x6 | x6 | x6 | %16
 x5 |] %17

